X: 1
T: Eamon Sefton of Eveleth Farm
C: Catherine Fraser 2011
R: strathspey
S: printed page in Concord Slow Scottish Session collection
Z: 2015 John Chambers <jc:trillian.mit.edu>
M: C
L: 1/16
K: Bb
F2 |\
B4 B3f dB3 B3d | e3d c3B B2A2F2D2 |\
E3F G3E D3F BF3 | Gc3 c3B A2c2 f2e2 |
d3f b2a2 g2f2 e2d2 | d3c BA3 B4 B3D |\
E3G ce3 d3c B3F | GB3 B3A B4 :|
|: F2D2 |\
B,4 B,3E DF3 B3F | G3B Ac3 B3d ce3 |\
d3f b2a2 g2f2 e2d2 | cG3 c3B A2c2 f2e2 |
d4 d2cd e4 e2de | f4 b3a b2f2 dB3 |\
e3d c2B2 B2A2F2D2 | E3c BA3 B4 :|
